X:797
T:The star above the garter
R:Single Jig
O:Ireland
D:Chieftains 4
B:Fiddler's Fakebook p264 (Chieftains?)
B:Irish Traditional Music Session Tunes 3
S:My arrangement from various sources
Z:Transcription, arrangement, chords:Mike Long
M:6/8
L:1/8
K:G
Bc|:\
"G"d2B BAG|"D"ABA ABA|"C"G2E c2B|"C"BAG "D"ABc|\
"G"d2B BAG|"D"A/B/cA ABA|"C"G2E c2E|"D"DED D3:|
|:"D"d2e f2a|"G"g2e d2B|G2B c2B|"C"BAG "D"ABc|\
"G"d2e "D"fga|"G"g2e d2B|"G"G2B "C"c2E|"D"DED D3:|
